public/assets/icons/unity.svg

<svg width="48" height="48" viewBox="0 0 256 256" fill="none"
  xmlns="http://www.w3.org/2000/svg"
  xmlns:xlink="http://www.w3.org/1999/xlink" version="1.1">

  <g transform="translate(0, 0)">
    <svg xmlns="http://www.w3.org/2000/svg" width="256" height="256" fill="none" viewBox="0 0 256 256">
      <rect width="256" height="256" fill="#242938" rx="60"/>
      <path fill="#CCC" d="M216.042 167.814V74.7425L135.38 28.2068V63.9876L167.025 82.1882C168.266 82.8086 168.266 84.6701 167.025 85.2905L129.382 107.007C128.348 107.628 126.901 107.628 125.866 107.007L88.2243 85.0837C86.9834 84.4632 86.9834 82.6018 88.2243 81.9813L119.869 63.7807V28L39.2068 74.5356V167.814V167.4V167.814L70.2305 150.027V113.419C70.2305 112.178 71.6783 111.144 72.9193 111.971L110.561 133.688C111.596 134.308 112.423 135.549 112.423 136.79V180.223C112.423 181.464 110.975 182.498 109.734 181.671L78.0899 163.47L47.0661 181.257L127.728 227.793L208.39 181.257L177.366 163.47L145.722 181.671C144.688 182.291 143.033 181.464 143.033 180.223V136.79C143.033 135.549 143.653 134.308 144.894 133.688L182.537 111.971C183.571 111.35 185.225 112.178 185.225 113.419V150.027L216.042 167.814Z"/>
      <path fill="#A6A6A6" d="M127.521 228L208.183 181.464L177.159 163.677L145.515 181.878C144.481 182.499 142.826 181.671 142.826 180.43V136.997C142.826 135.756 143.447 134.515 144.688 133.895L182.33 112.178C183.364 111.558 185.019 112.385 185.019 113.626V150.234L216.042 168.021V74.7427L127.521 125.828V228Z"/>
      <path fill="#fff" d="M135.174 28V63.7807L166.818 81.9813C168.059 82.6018 168.059 84.4632 166.818 85.0837L129.176 106.8C128.142 107.421 126.694 107.421 125.66 106.8L88.2243 85.0837C86.9834 84.4632 86.9834 82.6018 88.2243 81.9813L119.869 63.7807V28L39.2068 74.5356L127.728 125.621L216.249 74.5356L135.174 28Z"/>
      <path fill="#CCC" d="M109.32 181.671L77.6763 163.471L46.6525 181.258L127.314 227.793V125.622L39 74.7427V168.021V167.607V168.021L70.0237 150.234V113.626C70.0237 112.385 71.4715 111.351 72.7125 112.178L110.355 133.895C111.389 134.515 112.216 135.756 112.216 136.997V180.43C112.009 181.464 110.561 182.292 109.32 181.671Z"/>
    </svg>
  </g>

</svg>

<svg xmlns="http://www.w3.org/2000/svg" width="48" height="48" fill="none" viewBox="0 0 256 256"><svg xmlns="http://www.w3.org/2000/svg" width="256" height="256" viewBox="0 0 256 256"><rect width="256" height="256" fill="#242938" rx="60"/><path fill="#CCC" d="M216.042 167.814V74.743L135.38 28.207v35.78l31.645 18.201c1.241.62 1.241 2.482 0 3.102l-37.643 21.717c-1.034.621-2.481.621-3.516 0L88.224 85.084c-1.24-.62-1.24-2.482 0-3.103l31.645-18.2V28L39.207 74.536v93.278-.414.414l31.024-17.787v-36.608c0-1.241 1.447-2.275 2.688-1.448l37.642 21.717c1.035.62 1.862 1.861 1.862 3.102v43.433c0 1.241-1.448 2.275-2.689 1.448L78.09 163.47l-31.024 17.787 80.662 46.536 80.662-46.536-31.024-17.787-31.644 18.201c-1.034.62-2.689-.207-2.689-1.448V136.79c0-1.241.62-2.482 1.861-3.102l37.643-21.717c1.034-.621 2.688.207 2.688 1.448v36.608z"/><path fill="#A6A6A6" d="m127.521 228 80.662-46.536-31.024-17.787-31.644 18.201c-1.034.621-2.689-.207-2.689-1.448v-43.433c0-1.241.621-2.482 1.862-3.102l37.642-21.717c1.034-.62 2.689.207 2.689 1.448v36.608l31.023 17.787V74.743l-88.521 51.085z"/><path fill="#fff" d="M135.174 28v35.78l31.644 18.201c1.241.62 1.241 2.482 0 3.103L129.176 106.8c-1.034.621-2.482.621-3.516 0L88.224 85.084c-1.24-.62-1.24-2.482 0-3.103l31.645-18.2V28L39.207 74.536l88.521 51.085 88.521-51.085z"/><path fill="#CCC" d="m109.32 181.671-31.644-18.2-31.023 17.787 80.661 46.535V125.622L39 74.742v93.279-.414.414l31.024-17.787v-36.608c0-1.241 1.448-2.275 2.689-1.448l37.642 21.717c1.034.62 1.861 1.861 1.861 3.102v43.433c-.207 1.034-1.655 1.862-2.896 1.241"/></svg></svg>
